X:1
T:Title
L:1/8
M:4/4
I:linebreak $
K:D
V:1 treble nm="Voice"
V:1
"D" F2 A2 d2 fa |"G" g2 e2"A" efed | c2 A2"D" Acdf |"A" e2 d2"D" d2 AG |"D" F2 A2 d2 fa | %5
"G" g2 e2"A" efed | c2 A2"D" Acdf |1"A" e3 d"D" dAAG :|2"A" e3 d"D" d2 AG |:"D" F2 A2"G" B2 c2 | %10
 d2 c2 B2 A2 | G2 F2"A" EDEE |"D" F2 A2"G" B2 AF |"D" D2 F2 A2 G2 | FDFE DFAc | d2 dc d2 AG :| %16
